X:1000
T:O son do
C:Bieito Romero Copo
O:Galicia, España
B:Francis O'Neill: "The Dance Music of Ireland" (1907) no. 222
R:jig
Z:Transcrito por Manuel Domínguez López desde fotocopia del original
M:3/8
L:1/8
Q:138
K:Dm
DE|]"$""Dm"F>EF|"C"G>FG|"F"A>GF|"Dm"D>FA|"C"c>dc|"G"=B>cB|"Am"=B>AG|
A DE|"Dm"F>EF|"C"G>FG|"F"A>GF|"Dm"D>FG|
"Bb"F>ED|"C"C>DE|1"Dm"D3|"Dm"D- "S.A."DE:|2"Dm"D3|"Dm"D- "S.A."A/G/F/E/|
|:"Dm"D2E|"C"C2"C/A"E|"Dm"D>EF|"C"G>FE|"Dm"D2E|"C"C2"C/A"E|"Dm"ED>"C">C|"Dm"D A/G/F/E/|
"Dm"D2E|"C"C2"C/A"E"a Coda"||"Dm"D>EF|"C"G>FE|
"Dm"F>ED|"C"E>D"C/A"C|1"Dm"D3-|"Dm"D "S.A."A/G/F/E/:|2"Dm"D3-|"Dm"D D"S.A."E"D.S. a Coda"|
||"Coda""Dm"D>EF|"C"G>AB|"Dm"A>GF|"C"E>F"C/A"E|"Dm"D3-"D4/5"|"Dm"HD3|]

